svg/color/comp.svg

<svg width="64" height="65" viewBox="0 0 64 65" fill="none" xmlns="http://www.w3.org/2000/svg">
<rect y="0.303711" width="64" height="64" rx="32" fill="#070A0E"/>
<rect x="0.5" y="0.803711" width="63" height="63" rx="31.5" stroke="white" stroke-opacity="0.15"/>
<path fill-rule="evenodd" clip-rule="evenodd" d="M18.4864 43.0333C17.5296 42.4477 16.944 41.4077 16.944 40.2877V34.0349C16.944 33.2925 17.5488 32.6909 18.2912 32.6941C18.528 32.6941 18.7616 32.7581 18.9664 32.8765L33.0752 41.1037C33.9008 41.5837 34.4096 42.4669 34.4096 43.4237V49.9005C34.4128 50.7901 33.6928 51.5133 32.8032 51.5133C32.5056 51.5133 32.2112 51.4301 31.9584 51.2765L18.4864 43.0333ZM39.5168 31.1645C40.3424 31.6445 40.848 32.5309 40.8512 33.4845V46.6301C40.8512 47.0173 40.6432 47.3757 40.304 47.5645L37.216 49.3021C37.1776 49.3245 37.136 49.3405 37.0912 49.3533V42.0541C37.0912 41.1101 36.5952 40.2333 35.7824 39.7469L23.392 32.3357V24.0957C23.392 23.3533 23.9968 22.7517 24.7392 22.7549C24.976 22.7549 25.2096 22.8189 25.4144 22.9373L39.5168 31.1645ZM45.6928 21.4557C46.5216 21.9357 47.0304 22.8221 47.0304 23.7789V42.9789C47.0272 43.3725 46.8096 43.7341 46.464 43.9229L43.536 45.5037V32.1373C43.536 31.1933 43.04 30.3197 42.2336 29.8333L29.568 22.2365V14.4221C29.568 14.1853 29.632 13.9517 29.7472 13.7469C30.1216 13.1069 30.944 12.8893 31.584 13.2605L45.6928 21.4557Z" fill="#00D395"/>
</svg>

<svg xmlns="http://www.w3.org/2000/svg" width="64" height="65" fill="none" viewBox="0 0 64 65"><rect width="64" height="64" y=".304" fill="#070A0E" rx="32"/><rect width="63" height="63" x=".5" y=".804" stroke="#fff" stroke-opacity=".15" rx="31.5"/><path fill="#00D395" fill-rule="evenodd" d="M18.486 43.033a3.22 3.22 0 0 1-1.542-2.745v-6.253a1.34 1.34 0 0 1 1.347-1.34c.237 0 .47.063.675.181l14.11 8.228a2.68 2.68 0 0 1 1.334 2.32V49.9a1.607 1.607 0 0 1-1.607 1.612c-.297 0-.592-.083-.845-.236zm21.03-11.869a2.7 2.7 0 0 1 1.335 2.32V46.63c0 .387-.208.746-.547.934l-3.088 1.738a.5.5 0 0 1-.125.051v-7.299a2.69 2.69 0 0 0-1.309-2.307l-12.39-7.411v-8.24c0-.743.605-1.344 1.347-1.341.237 0 .47.064.675.182zm6.177-9.708a2.69 2.69 0 0 1 1.337 2.323v19.2c-.003.394-.22.755-.566.944l-2.928 1.58V32.138c0-.944-.496-1.817-1.302-2.304l-12.666-7.596v-7.815c0-.237.064-.47.18-.675a1.347 1.347 0 0 1 1.836-.486z" clip-rule="evenodd"/></svg>
